sources/images/svg/facebook.svg

<svg width="8" height="17" viewBox="0 0 8 17" xmlns="http://www.w3.org/2000/svg"><path d="M7.872 5.278H5.34v-1.66c0-.624.413-.77.704-.77H7.83V.108L5.37.095c-2.732 0-3.353 2.047-3.353 3.355v1.83H.437v2.825h1.58V16.1H5.34V8.102h2.24l.292-2.825" id="Fill-1" fill="#fff" fill-rule="evenodd"/></svg>

<?xml version="1.0" encoding="UTF-8" standalone="no"?>
<svg width="8px" height="17px" viewBox="0 0 8 17" version="1.1" xmlns="http://www.w3.org/2000/svg" xmlns:xlink="http://www.w3.org/1999/xlink" xmlns:sketch="http://www.bohemiancoding.com/sketch/ns">
    <!-- Generator: Sketch 3.0.4 (8053) - http://www.bohemiancoding.com/sketch -->
    <title>facebook</title>
    <desc>Created with Sketch.</desc>
    <defs></defs>
    <g id="Page-1" stroke="none" stroke-width="1" fill="none" fill-rule="evenodd" sketch:type="MSPage">
        <g id="Landscape-Retina" sketch:type="MSArtboardGroup" transform="translate(-966.000000, -949.000000)" fill="#FFFFFF">
            <g id="facebook" sketch:type="MSLayerGroup" transform="translate(966.000000, 949.000000)">
                <path d="M7.872,5.278 L5.339,5.278 L5.339,3.618 C5.339,2.994 5.753,2.849 6.044,2.849 L7.83,2.849 L7.83,0.106 L5.369,0.097 C2.638,0.097 2.017,2.143 2.017,3.451 L2.017,5.278 L0.436,5.278 L0.436,8.103 L2.017,8.103 L2.017,16.097 L5.339,16.097 L5.339,8.103 L7.581,8.103 L7.872,5.278" id="Fill-1" sketch:type="MSShapeGroup"></path>
            </g>
        </g>
    </g>
</svg>
